X: 27638
T: Moonlight In Mayo
R: waltz
M: 3/4
K: Dmajor
|:d4 d2|e4 c2|d2c2B2|A4 G2|F4 F2|G2F2E2|D6|D4 E2|
F4 A2|d4 e2|c6|c4 d2|B6|B4 c2|A6-|1 A4 A2:|2 A4 DE||
F4 E2|D4 E2|F2 A4-|A4 Bc|d4 f2|e4 d2|d2 B4-|B4 Bc|
d4 c2|B4 A2|A2 F4-|F4 A2|B4 B2|A4 F2|E6-|E4 DE|
F4 E2|D4 E2|F2 A4-|A4 Bc|d4 f2|e4 d2|d2 B4-|B4 Bc|
d4 c2|B4 A2|A2 F4-|F2G2A2|B4 d2|d4 e2|d6-|d6||

